!!!OTL: Der Zimmergeselle (32), S. 117
!!!id: T0157
**kern
*clefG2
*k[f#]
*G:
{8d
=1
4g
8b
4dd
8g
=2
8f#
8f#
8a
8cc
8cc}
=3
{8a
=4
8b
8b
8dd
8dd
8cc
8b
=5
4a}
4.r
=6
{8cc
=7
4cc
8ee
8ee
8dd
8cc
=8
8b
8b
8dd
8dd
8cc}
=9
{8b
=10
4a
8dd
8dd
8ee
8dd
=11
4b}
4.r
==
*-
!!!minrhy: 8
!!!meters: 6/8 ]  ZZ[4
!!!cut: Der Zimmergeselle (32), S. 117
!!!reg: Luxemburg
!!!trd: Singendes Volk, Esch-Alzette 1937 posth.
!!!rhy1: X  X_XX_X  XXXXX
!!!rhy2: X  XXXXXX  X_0_.
!!!key: T0157  08  G 6/8 ]  ZZ[4
!!!mod: HEPTATONIK IONISCH]  AMBITUS[9
!!!kad: 4243
!!!akz: 15-74_352_4635_253_
!!!fot: 'a__b__bs'c__
!!!for: 'a__b__c__cw_
!!!fok: '~a_^__^__^__
!! PHRAS[AUFTAKTIG]
!!!fkt: Liebeslieder
!!!bem: Rodershausen, ? M. Dirkes
!! THILL, Mathias:
!! PR[31] 2K[3] 2G[9] 3K[7] 3G[7] 4A[6] 4Ü[0] 5A[0] 6K[0] 6G[0]
!! 7K[0] 7G[0] 8A[0] MEHR[0] SI[31] ABS[89] SR[12] SP[19]
!! ST[34] 2k[9] 2g[18] 3k[2] 3g[4] 4d[2] 4ü[0] 5d[0] 6k[0] 6g[1]
!! 7k[0] 7g[0] 8d[0] mehr[0] si[37] dm[-6] sr[27] sp[10]
!! 1F[4] 2F[80] 3F[16] 4F[0] LF[0] 2P[0] 3P[0] 4P[0] TRI[0] DF[3] AB[90]
!! TF[0] U3K[0] U3[0] U4[0] U4Ü[0] U5[2] U6K[0] U6[0] U7K[0] U7[0]
!! N1[24] N2K[0] N2[9] N3K[0] N3[27] N4[13] N4Ü[0] N5[20] N6K[0] N6[4]
!!!n7k: 0] N7[0] O1[0] O2K[0] O2[0] O3K[0] O3[0] HÖ[0
